X: 11
M: 9/8
L: 1/8
P: AA B ad lib.
Q: 3/8=88 "rather quickly"
K: A
V: 1
"A"|:\
"B"[|]\
dfd afd ecA | dfd afd e2A |\
dfd afd ecA | dfd afd e2c |
dfd ecd BcA | BFA FBA G2E |\
V: 2
|:\
V: 3 clef=bass middle=d
|:\
"A"A3 A3 "E"e>dc/B/ | "A"A3 A3 "E"e3 | "A"A3 A3 A3 | "A"A2"D"d "E"e3 "A"A3 :|
"D"d3 d3 "A"a>=gf/e/ | "D"d3 d3 "A"a3 | "D"d3 d3 "A"a3 | "D"d3 d3 "A"a3 |
"D"d3 "A"c2B "E"G2"A"A | "E"e3 "B7"^d3 "E"e>=dc/B/ | "A"A3 A3 A3 | "D"A2"D"d "E"e3 "A"A3 |]


